X: 9482
T: Dark
R: reel
M: 4/4
K: Bminor
|:f3g fBde|fBeg fBde|f3g fBde|fB d2 ABdA|
f3g fBde|faeg fBeB|d2 ed efdB|ABde fagf:|
|:e3f eBde|e3d egfe|deed eBde|edBe fgfd|
e3f eBde|fgaf efde|f3d efdB|ABde fagf:|

